X:1
T:Free from the Law
T:Free from the Law
T:Philip Paul Bliss
T:Philip Paul Bliss, 1871
T:Public Domain Courtesy of the Cyber Hymnal™
T:Public Domain Courtesy of the Cyber Hymnal™
C:Philip Paul Bliss
Z:Public Domain
Z:Courtesy of the Cyber Hymnal™
%%score ( 1 2 ) ( 3 4 )
L:1/8
Q:1/4=115
M:9/8
K:Eb
V:1 treble 
V:2 treble 
V:3 bass 
V:4 bass 
V:1
 E[EG][Ec] | [EB]3 [EG]3 [EG][EF]E | [EG]3 [DF]3 [DF][^C=E][DF] | [FA]3 [Ac]3 [Ac][GB][FA] | %4
w: 1.~Free from the|law, O hap- py con-|di- tion, Je- sus has|bled and there is re-|
w: 2.~Now we are|free, there’s no con- dem-|na- tion, Je- sus pro-|vides a per- fect sal-|
w: 3.~“Child- ren of|God,” O glor- i- ous|call- ing, Sure- ly His|grace will keep us from|
 [FA]3 [EG]3 E[EG]B | [Ge]3 [GB]3 [GB][FA][EG] | [Ec]6 [Ec][EA][Ac] | [GB]3 [EG]3 [EG]2 [DF] | %8
w: mis- sion, Cursed by the|law and bruised by the|fall, Grace hath re-|deemed us once for|
w: va- tion. “Come un- to|Me,” O hear His sweet|call, Come, and He|saves us once for|
w: fall- ing; Pass- ing from|death to life at His|call; Bless- èd sal-|va- tion once for|
 E6 ||"^Refrain" (B[=Ac])[_Ad] | [Ge]3 [Ge]3 [Ge][Bd][Ac] | [Ac]3 [GB]3 B[=Ac][_Ad] | %12
w: all.||||
w: all.|Once * for|all, O sin- ner, re-|ceive it, Once for all,|
w: all.||||
 [Ge]3 [Ge]3 [Fe][Fd][Ec] | [Ec]3 [DB]3 E[EG][Ec] | [EB]3 [EG]3 [EG][EF]E | [Ec]6 [Ec][EA][Ec] | %16
w: ||||
w: * O bro- ther, be-|lieve it; Cling to the|cross, the bur- den will|fall, Christ hath re-|
w: ||||
 [EB]3 [EG]3 [EG]2 [DF] | [B,E]6 |] %18
w: ||
w: deemed us once for|all.|
w: ||
V:2
 E x2 | x8 E | x9 | x9 | x6 EB x | x9 | x9 | x9 | E6 || x3 | x9 | x6 B x2 | x9 | x6 E x2 | x8 E | %15
 x9 | x9 | x6 |] %18
V:3
 [E,G,][E,B,][E,A,] | [E,G,]3 [E,B,]3 [E,B,][E,A,][E,G,] | %2
 [B,,B,]3 [B,,B,]3 [B,,B,][B,,B,][B,,B,] | [B,,B,]3 [B,,B,]3 [B,,B,][B,,B,][B,,B,] | %4
 [E,B,]3 [E,B,]3 [E,G,][E,B,][E,B,] | [E,B,]3 [E,E]3 [E,E][E,B,][E,B,] | A,6 A,[A,C][A,E] | %7
 [B,E]3 B,3 [B,,B,]2 [B,,A,] | [E,G,]6 || B,2 B, | [E,B,]3 [E,B,]3 [E,B,][E,B,] (C/D/) | %11
 [E,E]3 [E,E]3 B,2 B, | [E,B,]3 [E,B,]3 [F,=A,][F,A,][F,A,] | %13
 [B,,B,]3 [B,,B,]3 [E,G,][E,B,][E,A,] | [E,G,]3 [E,B,]3 [E,B,][E,A,][E,G,] | %15
 [A,,A,]6 [A,,A,][A,,C][A,,A,] | [B,,G,]3 [B,,B,]3 [B,,B,]2 [B,,A,] | [E,G,]6 |] %18
V:4
 x3 | x9 | x9 | x9 | x9 | x9 | A,6 A, x2 | x3 B,3 x3 | x6 || B,2 B, | x8 E, | x6 B,2 B, | x9 | x9 | %14
 x9 | x9 | x9 | x6 |] %18

